packages/icons/src/components/Icon/assets/default-solid/music.svg

<svg width="20" height="20" viewBox="0 0 20 20" fill="none" xmlns="http://www.w3.org/2000/svg">
<path fill-rule="evenodd" clip-rule="evenodd" d="M15.2948 2.11434C15.4368 2.22148 15.5203 2.38908 15.5203 2.567V5.38943C15.5205 5.39799 15.5205 5.40653 15.5203 5.41505V13.1908C15.5203 14.2034 14.849 15.0933 13.8754 15.3715L12.8775 15.6566C11.6446 16.0089 10.4174 15.0831 10.4174 13.8009C10.4174 12.9392 10.9886 12.182 11.8171 11.9452L13.5639 11.4462C14.0507 11.3071 14.3863 10.8621 14.3863 10.3558V6.15364L7.58242 8.09761V15.4588C7.58242 16.4714 6.91115 17.3613 5.93751 17.6395L4.93962 17.9246C3.70675 18.2768 2.47949 17.3511 2.47949 16.0689C2.47949 15.2072 3.05071 14.4499 3.87923 14.2132L5.62598 13.7141C6.1128 13.5751 6.44844 13.1301 6.44844 12.6238V7.68246C6.44824 7.6739 6.44824 7.66535 6.44844 7.65683V4.83497C6.44844 4.58181 6.61625 4.35933 6.85966 4.28979L14.7976 2.02182C14.9686 1.97294 15.1527 2.0072 15.2948 2.11434Z" fill="#727683"/>
</svg>

<svg xmlns="http://www.w3.org/2000/svg" width="20" height="20" fill="none" viewBox="0 0 20 20">
    <path fill="#727683" fill-rule="evenodd" d="M15.295 2.114a.57.57 0 0 1 .225.453v10.624a2.27 2.27 0 0 1-1.645 2.18l-.998.286a1.93 1.93 0 1 1-1.06-3.712l1.747-.499c.487-.139.822-.584.822-1.09V6.154L7.582 8.098v7.36a2.27 2.27 0 0 1-1.644 2.182l-.998.285a1.93 1.93 0 0 1-1.06-3.712l1.746-.499c.487-.139.822-.584.822-1.09V4.835c0-.253.168-.476.412-.545l7.938-2.268a.57.57 0 0 1 .497.092" clip-rule="evenodd"/>
</svg>
